X: 1
T: Michelle's Waltz
S: Paul Milde
M: 3/4
L: 1/8
K: G
D2 \
| G3 Bde | d2 B2 G2 | A3 BAG | FA D2 EF | G3 Bde | d2 g2 e2 | c3 AFD | G4 :|
|: ef \
| g3 efg | ab d2 g2- | g2 f2 e2 | d2 A2 ef | g3 efg | a2 fd A2 | c2 B2 A2 | G4 :|
